X:38
T:Dublin Reel, The
T:Jackson's
R:reel
E:7.5
M:C|
I:speed 350
K:D
dF~F2 dedc|dF~F2 AFEF|dF~F2 dfed|cABF AFEF|\
dF~F2 dedc|dF~F2 AFEF|d3c dfed|cABF AFEF||*
eA~A2 eAfA|eA~A2 BAFA|eA~A2 egfe|dBcA BAFA|\
eA~A2 eAfA|eA~A2 BAFA|~e3d egfe|dBcA BAFA||*
d3c dF~F2|dedB AFEF|d3c dfed|cABF AFEF|\
d3c dF~F2|dedB AFEF|dcdf egfe|dABc d3z||**
<end>
<start>
